X:147
T:Fly Fishing Reel, The
M:C|
L:1/8
Q:175
C:Key of D
S:tape of concert
S:Kevin Alewine <kalewine@HOME.COM> irtrad-l 2001-5-26
R:reel
N:Composed by Jackie Daly
Z:Ken Fleming
%F:http://trillian.mit.edu/~jc/music/abc/mirror/irtrad-l/FlyFishingReelThe_1.abc 2003-07-15 16:53:21 UT
K:D
|: dcAF G2FG | ADDE FAA2 | GFGA G2FG | Addf eafe |
|  dcAF G2FG | ADDE FAA2 | GFGA G2FG |1 Addc d3e :|2 Addc d2de ||
|: f2af dfaf | =cfaf B3A | GA (3B=cd gdBd | ceab agfe |
|  f2af dfaf | =cfaf B3A | GA (3B=cd gdBd |1 cedc d2de :|2 cedc d3e |]
